dist/img/stack/stack-22.svg

<svg width="110" height="110" viewBox="0 0 110 110" fill="none" xmlns="http://www.w3.org/2000/svg">
<path d="M89.1337 88H20.9999L43.682 39.708L57.3451 49.7337L75.1666 22L89.1337 88ZM64.1525 77.5693H64.2983C65.9846 77.5724 67.6061 76.9217 68.821 75.7549C69.4437 75.191 69.9389 74.5014 70.2741 73.7318C70.6093 72.9622 70.7768 72.1305 70.7653 71.2915C70.7931 70.483 70.6393 69.6788 70.315 68.9375C69.9908 68.1962 69.5044 67.5367 68.8915 67.0076C67.8584 65.9729 66.4661 65.3745 65.0032 65.3363H64.8914C64.6998 65.3353 64.5092 65.3614 64.3251 65.4137L67.922 60.0772L65.0565 58.0807L63.7004 60.0772L60.2349 65.3605C59.6394 66.2362 59.1411 67.0076 58.8326 67.5436C58.5124 68.1108 58.2369 68.7021 58.0086 69.312C57.749 69.9601 57.6155 70.6517 57.6149 71.3496C57.6069 72.1788 57.7737 73.0004 58.1045 73.761C58.4351 74.5216 58.9226 75.2043 59.5349 75.7645C60.7339 76.9305 62.3425 77.5817 64.0164 77.579L64.1525 77.5693ZM48.9194 71.8251L52.8905 77.431H57.1362L52.4651 70.9275L56.6138 65.1786L53.8601 63.2767L52.645 64.8777L48.9145 70.1271V59.5725L45.1961 56.5476V77.4286H48.9145V71.8202L48.9194 71.8251ZM64.1574 74.0689C63.4322 74.0689 62.7368 73.7814 62.2241 73.2696C61.7114 72.7579 61.4233 72.0638 61.4233 71.3399C61.4233 70.6161 61.7114 69.922 62.2241 69.4102C62.7368 68.8985 63.4322 68.6109 64.1574 68.6109H64.1817C64.5417 68.6113 64.8981 68.6844 65.2293 68.8257C65.5605 68.967 65.8597 69.1738 66.1088 69.4334C66.3711 69.6737 66.5799 69.9663 66.7218 70.2921C66.8636 70.6181 66.9356 70.97 66.9328 71.3254C66.9239 72.0541 66.628 72.7498 66.109 73.2624C65.5901 73.7749 64.8897 74.0629 64.1598 74.064L64.1574 74.0689Z" fill="#B7B7BE"/>
</svg>

<svg width="110" height="110" viewBox="0 0 110 110" fill="none" xmlns="http://www.w3.org/2000/svg"><path d="M89.134 88H21l22.682-48.292 13.663 10.026L75.167 22l13.967 66zM64.153 77.57h.145a6.512 6.512 0 004.523-1.815 5.917 5.917 0 001.944-4.463 5.409 5.409 0 00-1.874-4.284 5.705 5.705 0 00-3.888-1.672h-.112a2.033 2.033 0 00-.566.078l3.597-5.337-2.865-1.996-1.357 1.996-3.465 5.284c-.596.875-1.094 1.647-1.402 2.183a12.54 12.54 0 00-.824 1.768 5.493 5.493 0 00-.394 2.038 5.903 5.903 0 001.92 4.415 6.413 6.413 0 004.481 1.814l.136-.01zm-15.234-5.745l3.972 5.606h4.245l-4.67-6.504 4.148-5.748-2.754-1.902-1.215 1.6-3.73 5.25V59.573l-3.719-3.025v20.88h3.718V71.82l.005.005zm15.238 2.244c-.725 0-1.42-.288-1.933-.8a2.726 2.726 0 011.933-4.658h.025a2.678 2.678 0 011.927.822 2.54 2.54 0 01.824 1.892 2.77 2.77 0 01-.824 1.937 2.78 2.78 0 01-1.95.802l-.002.005z" fill="#B7B7BE"/></svg>
